svgs/duotone/folder-image.svg

<svg xmlns="http://www.w3.org/2000/svg" viewBox="0 0 512 512"><!--! Font Awesome Pro 6.3.0 by @fontawesome - https://fontawesome.com License - https://fontawesome.com/license (Commercial License) Copyright 2023 Fonticons, Inc. --><defs><style>.fa-secondary{opacity:.4}</style></defs><path class="fa-primary" d="M414.1 407.6C411.3 412.8 405.9 416 400 416h-288c-6.023 0-11.53-3.379-14.26-8.75c-2.73-5.367-2.214-11.81 1.333-16.68l70-96C172.1 290.4 176.9 288 181.1 288c5.109 0 9.913 2.441 12.93 6.574l22.35 30.66l62.74-94.11C282.1 226.7 287.1 224 293.3 224c5.348 0 10.34 2.672 13.31 7.125l106.7 160C416.6 396 416.9 402.3 414.1 407.6z"/><path class="fa-secondary" d="M464 96h-192l-64-64h-160C21.5 32 0 53.5 0 80v352C0 458.5 21.5 480 48 480h416c26.5 0 48-21.5 48-48v-288C512 117.5 490.5 96 464 96zM127.1 192c17.68 0 32 14.33 32 32s-14.32 32-32 32c-17.67 0-32-14.33-32-32S110.3 192 127.1 192zM414.1 407.6C411.3 412.8 405.9 416 400 416h-288c-6.023 0-11.53-3.379-14.26-8.75c-2.73-5.367-2.214-11.81 1.333-16.68l70-96C172.1 290.4 176.9 288 181.1 288c5.109 0 9.913 2.441 12.93 6.574l22.35 30.66l62.74-94.11C282.1 226.7 287.1 224 293.3 224c5.348 0 10.34 2.672 13.31 7.125l106.7 160C416.6 396 416.9 402.3 414.1 407.6z"/></svg>

<svg xmlns="http://www.w3.org/2000/svg" viewBox="0 0 512 512"><!-- Font Awesome Pro 6.0.0-alpha2 by @fontawesome - https://fontawesome.com License - https://fontawesome.com/license (Commercial License) --><defs><style>.fa-secondary{opacity:.4}</style></defs><path d="M464 96H272L208 32H48C21.5 32 0 53.5 0 80V432C0 458.5 21.5 480 48 480H464C490.5 480 512 458.5 512 432V144C512 117.5 490.5 96 464 96ZM127.984 192C145.66 192 159.984 206.328 159.984 224S145.66 256 127.984 256C110.312 256 95.984 241.672 95.984 224S110.312 192 127.984 192ZM414.109 407.551C411.32 412.754 405.898 416 400 416H112C105.977 416 100.469 412.621 97.738 407.25C95.008 401.883 95.523 395.438 99.07 390.574L169.07 294.574C172.086 290.441 176.891 288 182 288C187.109 288 191.914 290.441 194.93 294.574L217.281 325.234L280.023 231.125C282.988 226.672 287.984 224 293.336 224C298.684 224 303.68 226.672 306.648 231.125L413.312 391.125C416.586 396.035 416.891 402.348 414.109 407.551Z" class="fa-secondary"/><path d="M414.11 407.551C411.321 412.754 405.899 416 400.001 416H112.001C105.977 416 100.469 412.621 97.739 407.25C95.008 401.883 95.524 395.438 99.071 390.574L169.071 294.574C172.087 290.441 176.891 288 182.001 288C187.11 288 191.915 290.441 194.93 294.574L217.282 325.234L280.024 231.125C282.989 226.672 287.985 224 293.337 224C298.684 224 303.68 226.672 306.649 231.125L413.313 391.125C416.587 396.035 416.891 402.348 414.11 407.551Z" class="fa-primary"/></svg>
